src/_assets/icons/timeline-referenda-icon.svg

<svg width="24" height="24" viewBox="0 0 24 24" fill="none" xmlns="http://www.w3.org/2000/svg">
<path d="M19.1998 3H4.80021C4.32299 3.00074 3.86554 3.19062 3.52809 3.52803C3.19065 3.86543 3.00074 4.32284 3 4.8V19.1979C3 19.6755 3.1896 20.1335 3.52714 20.4714C3.86469 20.8093 4.32257 20.9994 4.80021 21H19.1998C19.6771 20.9994 20.1346 20.8096 20.4721 20.4722C20.8096 20.1347 20.9994 19.6772 21 19.2V4.8C20.9993 4.32284 20.8094 3.86543 20.4719 3.52803C20.1345 3.19062 19.677 3.00074 19.1998 3ZM5.36137 19.4531C5.14428 19.4531 4.93608 19.3669 4.78258 19.2134C4.62908 19.0599 4.54284 18.8518 4.54284 18.6347V5.36109C4.54284 5.14403 4.62908 4.93586 4.78258 4.78237C4.93608 4.62888 5.14428 4.54266 5.36137 4.54266H18.6386C18.8554 4.54321 19.063 4.62969 19.2161 4.78312C19.3691 4.93654 19.4551 5.1444 19.4551 5.36109V18.6368C19.4545 18.8531 19.3683 19.0604 19.2153 19.2134C19.0623 19.3664 18.855 19.4526 18.6386 19.4531H5.36137Z" fill="#E5007A"/>
<path d="M8.09263 14.3688V15.6886C8.09235 15.7172 8.09777 15.7456 8.10859 15.7721C8.11941 15.7986 8.13541 15.8226 8.15564 15.8429C8.17588 15.8631 8.19994 15.8791 8.22643 15.8899C8.25292 15.9007 8.28131 15.9061 8.30992 15.9059H9.62984C9.65832 15.9062 9.68655 15.9005 9.71271 15.8892C9.73887 15.878 9.76239 15.8614 9.78173 15.8405L14.5213 11.1056L12.8934 9.47789L8.15803 14.2127C8.13694 14.2328 8.12024 14.2571 8.10898 14.2839C8.09773 14.3108 8.09216 14.3397 8.09263 14.3688ZM15.7801 9.84703C15.8204 9.80686 15.8524 9.75914 15.8742 9.70659C15.896 9.65404 15.9072 9.59771 15.9072 9.54082C15.9072 9.48393 15.896 9.4276 15.8742 9.37505C15.8524 9.3225 15.8204 9.27478 15.7801 9.23461L14.7647 8.2193C14.7245 8.17901 14.6768 8.14705 14.6242 8.12524C14.5717 8.10343 14.5153 8.0922 14.4584 8.0922C14.4015 8.0922 14.3452 8.10343 14.2926 8.12524C14.2401 8.14705 14.1923 8.17901 14.1522 8.2193L13.3582 9.01383L14.9855 10.6409L15.7801 9.84703Z" fill="#E5007A"/>
</svg>

<svg xmlns="http://www.w3.org/2000/svg" width="24" height="24" fill="none"><path fill="#E5007A" d="M19.2 3H4.8A1.803 1.803 0 0 0 3 4.8v14.398A1.8 1.8 0 0 0 4.8 21h14.4a1.803 1.803 0 0 0 1.8-1.8V4.8A1.8 1.8 0 0 0 19.2 3M5.36 19.453a.82.82 0 0 1-.818-.818V5.36a.82.82 0 0 1 .818-.818H18.64a.82.82 0 0 1 .816.818v13.276a.82.82 0 0 1-.816.816z"/><path fill="#E5007A" d="M8.093 14.369v1.32a.215.215 0 0 0 .217.217h1.32a.2.2 0 0 0 .152-.066l4.74-4.734-1.629-1.628-4.735 4.735a.21.21 0 0 0-.065.156m7.687-4.522a.43.43 0 0 0 0-.612l-1.015-1.016a.43.43 0 0 0-.613 0l-.794.795 1.627 1.627z"/></svg>
